svgs/disneyplus.svg

<svg width="192" height="192" viewBox="0 0 192 192" fill="none" xmlns="http://www.w3.org/2000/svg">
<path d="M86.5198 70.319L87.1193 155.253" stroke="black" stroke-width="12" stroke-miterlimit="1" stroke-linecap="round" stroke-linejoin="round"/>
<path d="M128.088 119.481C128.088 119.481 146.473 110.488 127.888 101.894C127.888 101.894 118.295 97.4979 88.918 97.298C88.918 97.298 44.1528 102.094 44.1528 112.886C44.1528 112.886 42.3542 124.277 86.5199 143.662C86.5199 143.662 136.341 158.668 161.684 130.99C168.585 122.805 172.126 110.141 168.641 99.9315C162.034 76.3012 122.808 54.8044 112.3 49.1355C112.3 49.1355 70.5323 29.3508 27.9654 38.3439C27.9654 38.3439 13.7764 45.938 29.1645 47.3369" stroke="black" stroke-width="12" stroke-miterlimit="1" stroke-linecap="round" stroke-linejoin="round"/>
</svg>

<svg width="192" height="192" viewBox="0 0 192 192" fill="none" xmlns="http://www.w3.org/2000/svg"><path d="m86.52 70.319.6 84.934M128.088 119.481s18.385-8.993-.2-17.587c0 0-9.593-4.396-38.97-4.596 0 0-44.765 4.796-44.765 15.588 0 0-1.799 11.391 42.367 30.776 0 0 49.821 15.006 75.164-12.672 6.901-8.185 10.442-20.849 6.957-31.059-6.607-23.63-45.833-45.127-56.341-50.795 0 0-41.768-19.785-84.335-10.792 0 0-14.189 7.594 1.2 8.993" stroke="#000" stroke-width="12" stroke-miterlimit="1" stroke-linecap="round" stroke-linejoin="round"/></svg>
